assets/img/logo.svg

<svg width="129" height="24" viewBox="0 0 129 24" fill="none" xmlns="http://www.w3.org/2000/svg">
<path d="M16.8906 20.2838C10.4673 22.281 0.0927203 20.2399 0.000572001 11.3449C-0.0915763 2.44983 10.9806 7.74852 10.9806 7.74852L16.8906 20.2838Z" fill="#FFC250"/>
<path d="M3.12366 6.35426C7.60662 5.58608 11.0114 11.5265 14.7783 17.7232C18.5452 23.92 28.3542 26.3762 34.6218 21.165C40.8894 15.9539 43.542 6.82713 35.8465 1.38317C28.1509 -4.06079 23.3471 8.29872 16.7221 8.63845C10.0972 8.97819 10.0489 4.05367 3.12366 6.35426Z" fill="#FFD064"/>
<circle cx="35.1972" cy="11.6219" r="1.96745" fill="#FFE19D"/>
<circle cx="31.4263" cy="13.0974" r="1.47559" fill="#FFE19D"/>
<circle cx="34.0495" cy="15.0648" r="1.14768" fill="#FFE19D"/>
<path d="M50.6123 20V3.2H57.3563C59.1003 3.2 60.4283 3.608 61.3403 4.424C62.2683 5.224 62.7323 6.256 62.7323 7.52C62.7323 8.576 62.4443 9.424 61.8683 10.064C61.3083 10.688 60.6203 11.112 59.8043 11.336C60.7643 11.528 61.5563 12.008 62.1803 12.776C62.8043 13.528 63.1163 14.408 63.1163 15.416C63.1163 16.744 62.6363 17.84 61.6763 18.704C60.7163 19.568 59.3563 20 57.5963 20H50.6123ZM53.6843 10.256H56.9003C57.7643 10.256 58.4283 10.056 58.8923 9.656C59.3563 9.256 59.5883 8.688 59.5883 7.952C59.5883 7.248 59.3563 6.696 58.8923 6.296C58.4443 5.88 57.7643 5.672 56.8523 5.672H53.6843V10.256ZM53.6843 17.504H57.1163C58.0283 17.504 58.7323 17.296 59.2283 16.88C59.7403 16.448 59.9963 15.848 59.9963 15.08C59.9963 14.296 59.7323 13.68 59.2043 13.232C58.6763 12.784 57.9643 12.56 57.0683 12.56H53.6843V17.504ZM68.825 20.288C67.801 20.288 66.961 20.128 66.305 19.808C65.649 19.472 65.161 19.032 64.841 18.488C64.521 17.944 64.361 17.344 64.361 16.688C64.361 15.584 64.793 14.688 65.657 14C66.521 13.312 67.817 12.968 69.545 12.968H72.569V12.68C72.569 11.864 72.337 11.264 71.873 10.88C71.409 10.496 70.833 10.304 70.145 10.304C69.521 10.304 68.977 10.456 68.513 10.76C68.049 11.048 67.761 11.48 67.649 12.056H64.649C64.729 11.192 65.017 10.44 65.513 9.8C66.025 9.16 66.681 8.672 67.481 8.336C68.281 7.984 69.177 7.808 70.169 7.808C71.865 7.808 73.201 8.232 74.177 9.08C75.153 9.928 75.641 11.128 75.641 12.68V20H73.025L72.737 18.08C72.385 18.72 71.889 19.248 71.249 19.664C70.625 20.08 69.817 20.288 68.825 20.288ZM69.521 17.888C70.401 17.888 71.081 17.6 71.561 17.024C72.057 16.448 72.369 15.736 72.497 14.888H69.881C69.065 14.888 68.481 15.04 68.129 15.344C67.777 15.632 67.601 15.992 67.601 16.424C67.601 16.888 67.777 17.248 68.129 17.504C68.481 17.76 68.945 17.888 69.521 17.888ZM82.7525 20C81.5045 20 80.5045 19.696 79.7525 19.088C79.0005 18.48 78.6245 17.4 78.6245 15.848V10.664H76.5845V8.096H78.6245L78.9845 4.904H81.6965V8.096H84.9125V10.664H81.6965V15.872C81.6965 16.448 81.8165 16.848 82.0565 17.072C82.3125 17.28 82.7445 17.384 83.3525 17.384H84.8405V20H82.7525ZM90.694 20.288C89.67 20.288 88.83 20.128 88.174 19.808C87.518 19.472 87.03 19.032 86.71 18.488C86.39 17.944 86.23 17.344 86.23 16.688C86.23 15.584 86.662 14.688 87.526 14C88.39 13.312 89.686 12.968 91.414 12.968H94.438V12.68C94.438 11.864 94.206 11.264 93.742 10.88C93.278 10.496 92.702 10.304 92.014 10.304C91.39 10.304 90.846 10.456 90.382 10.76C89.918 11.048 89.63 11.48 89.518 12.056H86.518C86.598 11.192 86.886 10.44 87.382 9.8C87.894 9.16 88.55 8.672 89.35 8.336C90.15 7.984 91.046 7.808 92.038 7.808C93.734 7.808 95.07 8.232 96.046 9.08C97.022 9.928 97.51 11.128 97.51 12.68V20H94.894L94.606 18.08C94.254 18.72 93.758 19.248 93.118 19.664C92.494 20.08 91.686 20.288 90.694 20.288ZM91.39 17.888C92.27 17.888 92.95 17.6 93.43 17.024C93.926 16.448 94.238 15.736 94.366 14.888H91.75C90.934 14.888 90.35 15.04 89.998 15.344C89.646 15.632 89.47 15.992 89.47 16.424C89.47 16.888 89.646 17.248 89.998 17.504C90.35 17.76 90.814 17.888 91.39 17.888ZM106.538 20.288C105.642 20.288 104.858 20.12 104.186 19.784C103.514 19.448 102.97 18.976 102.554 18.368L102.218 20H99.4816V2.72H102.554V9.8C102.938 9.272 103.442 8.808 104.066 8.408C104.706 8.008 105.53 7.808 106.538 7.808C107.658 7.808 108.658 8.08 109.538 8.624C110.418 9.168 111.114 9.912 111.626 10.856C112.138 11.8 112.394 12.872 112.394 14.072C112.394 15.272 112.138 16.344 111.626 17.288C111.114 18.216 110.418 18.952 109.538 19.496C108.658 20.024 107.658 20.288 106.538 20.288ZM105.89 17.6C106.866 17.6 107.674 17.272 108.314 16.616C108.954 15.96 109.274 15.112 109.274 14.072C109.274 13.032 108.954 12.176 108.314 11.504C107.674 10.832 106.866 10.496 105.89 10.496C104.898 10.496 104.082 10.832 103.442 11.504C102.818 12.16 102.506 13.008 102.506 14.048C102.506 15.088 102.818 15.944 103.442 16.616C104.082 17.272 104.898 17.6 105.89 17.6ZM115.834 6.248C115.274 6.248 114.81 6.08 114.442 5.744C114.09 5.408 113.914 4.984 113.914 4.472C113.914 3.96 114.09 3.544 114.442 3.224C114.81 2.888 115.274 2.72 115.834 2.72C116.394 2.72 116.85 2.888 117.202 3.224C117.57 3.544 117.754 3.96 117.754 4.472C117.754 4.984 117.57 5.408 117.202 5.744C116.85 6.08 116.394 6.248 115.834 6.248ZM114.298 20V8.096H117.37V20H114.298ZM124.92 20C123.672 20 122.672 19.696 121.92 19.088C121.168 18.48 120.792 17.4 120.792 15.848V10.664H118.752V8.096H120.792L121.152 4.904H123.864V8.096H127.08V10.664H123.864V15.872C123.864 16.448 123.984 16.848 124.224 17.072C124.48 17.28 124.912 17.384 125.52 17.384H127.008V20H124.92Z" fill="#F7931A"/>
</svg>

<svg width="129" height="24" fill="none" xmlns="http://www.w3.org/2000/svg"><path d="M16.89 20.284C10.468 22.28.094 20.24 0 11.344-.091 2.45 10.98 7.75 10.98 7.75l5.91 12.535z" fill="#FFC250"/><path d="M3.124 6.354c4.483-.768 7.887 5.173 11.654 11.37 3.767 6.196 13.576 8.652 19.844 3.441 6.267-5.211 8.92-14.338 1.224-19.782C28.151-4.06 23.347 8.3 16.723 8.638c-6.625.34-6.673-4.584-13.598-2.284z" fill="#FFD064"/><circle cx="35.197" cy="11.622" r="1.967" fill="#FFE19D"/><circle cx="31.426" cy="13.097" r="1.476" fill="#FFE19D"/><circle cx="34.05" cy="15.065" r="1.148" fill="#FFE19D"/><path d="M50.612 20V3.2h6.744c1.744 0 3.072.408 3.984 1.224.928.8 1.392 1.832 1.392 3.096 0 1.056-.288 1.904-.864 2.544a4.215 4.215 0 01-2.064 1.272c.96.192 1.752.672 2.376 1.44.624.752.936 1.632.936 2.64 0 1.328-.48 2.424-1.44 3.288-.96.864-2.32 1.296-4.08 1.296h-6.984zm3.072-9.744H56.9c.864 0 1.528-.2 1.992-.6.464-.4.696-.968.696-1.704 0-.704-.232-1.256-.696-1.656-.448-.416-1.128-.624-2.04-.624h-3.168v4.584zm0 7.248h3.432c.912 0 1.616-.208 2.112-.624.512-.432.768-1.032.768-1.8 0-.784-.264-1.4-.792-1.848-.528-.448-1.24-.672-2.136-.672h-3.384v4.944zm15.141 2.784c-1.024 0-1.864-.16-2.52-.48-.656-.336-1.144-.776-1.464-1.32a3.485 3.485 0 01-.48-1.8c0-1.104.432-2 1.296-2.688.864-.688 2.16-1.032 3.888-1.032h3.024v-.288c0-.816-.232-1.416-.696-1.8-.464-.384-1.04-.576-1.728-.576-.624 0-1.168.152-1.632.456-.464.288-.752.72-.864 1.296h-3c.08-.864.368-1.616.864-2.256a4.9 4.9 0 011.968-1.464c.8-.352 1.696-.528 2.688-.528 1.696 0 3.032.424 4.008 1.272.976.848 1.464 2.048 1.464 3.6V20h-2.616l-.288-1.92a4.401 4.401 0 01-1.488 1.584c-.624.416-1.432.624-2.424.624zm.696-2.4c.88 0 1.56-.288 2.04-.864.496-.576.808-1.288.936-2.136h-2.616c-.816 0-1.4.152-1.752.456-.352.288-.528.648-.528 1.08 0 .464.176.824.528 1.08.352.256.816.384 1.392.384zM82.752 20c-1.248 0-2.248-.304-3-.912-.751-.608-1.127-1.688-1.127-3.24v-5.184h-2.04V8.096h2.04l.36-3.192h2.712v3.192h3.215v2.568h-3.216v5.208c0 .576.12.976.36 1.2.257.208.689.312 1.297.312h1.488V20h-2.088zm7.942.288c-1.024 0-1.864-.16-2.52-.48-.656-.336-1.144-.776-1.464-1.32a3.485 3.485 0 01-.48-1.8c0-1.104.432-2 1.296-2.688.864-.688 2.16-1.032 3.888-1.032h3.024v-.288c0-.816-.232-1.416-.696-1.8-.464-.384-1.04-.576-1.728-.576-.624 0-1.168.152-1.632.456-.464.288-.752.72-.864 1.296h-3c.08-.864.368-1.616.864-2.256a4.9 4.9 0 011.968-1.464c.8-.352 1.696-.528 2.688-.528 1.696 0 3.032.424 4.008 1.272.976.848 1.464 2.048 1.464 3.6V20h-2.616l-.288-1.92a4.401 4.401 0 01-1.488 1.584c-.624.416-1.432.624-2.424.624zm.696-2.4c.88 0 1.56-.288 2.04-.864.496-.576.808-1.288.936-2.136H91.75c-.816 0-1.4.152-1.752.456-.352.288-.528.648-.528 1.08 0 .464.176.824.528 1.08.352.256.816.384 1.392.384zm15.148 2.4c-.896 0-1.68-.168-2.352-.504a4.24 4.24 0 01-1.632-1.416L102.218 20h-2.736V2.72h3.072V9.8c.384-.528.888-.992 1.512-1.392.64-.4 1.464-.6 2.472-.6 1.12 0 2.12.272 3 .816a5.846 5.846 0 012.088 2.232c.512.944.768 2.016.768 3.216 0 1.2-.256 2.272-.768 3.216a5.894 5.894 0 01-2.088 2.208c-.88.528-1.88.792-3 .792zm-.648-2.688c.976 0 1.784-.328 2.424-.984.64-.656.96-1.504.96-2.544s-.32-1.896-.96-2.568c-.64-.672-1.448-1.008-2.424-1.008-.992 0-1.808.336-2.448 1.008-.624.656-.936 1.504-.936 2.544s.312 1.896.936 2.568c.64.656 1.456.984 2.448.984zm9.944-11.352c-.56 0-1.024-.168-1.392-.504-.352-.336-.528-.76-.528-1.272s.176-.928.528-1.248c.368-.336.832-.504 1.392-.504.56 0 1.016.168 1.368.504.368.32.552.736.552 1.248s-.184.936-.552 1.272c-.352.336-.808.504-1.368.504zM114.298 20V8.096h3.072V20h-3.072zm10.622 0c-1.248 0-2.248-.304-3-.912-.752-.608-1.128-1.688-1.128-3.24v-5.184h-2.04V8.096h2.04l.36-3.192h2.712v3.192h3.216v2.568h-3.216v5.208c0 .576.12.976.36 1.2.256.208.688.312 1.296.312h1.488V20h-2.088z" fill="#F7931A"/></svg>
